X: 34605
T: Riverton Road
R: reel
M: 4/4
K: Gminor
|:GABc dgfd|Bcc/c/c cBAB|GABc dgfd|Bcc/c/cd3B|
GABc dgfd|Bcc/c/c cABc|dccd cBAc|1 BAGB AFcF:|2 BAGB AFcd||
|:BGGF G3c|BGGF Gcdc|BGGF G3G|FDCD B,DGD|
BGGF G3c|BGGG GABc|dccd cBAc|1 BAGB AFcd:|2 BAGB AFcF||

